X: 20105
T: Jimmy Ward's
R: jig
M: 6/8
K: Gmajor
|:B3 Bcd|cBA BAF|B3 cBA|BAF F3|
B3 Bcd|cBA Bcd|e2 c dBA|1 F3 FAd:|2 F3 F2d||
|:e2 c dcB|c3 cBA|e2 c dBA|F3 FAd|
e2 c dcB|c3 cde|fec cBA|BAF F3:|

